src/img/icons/copy.svg

<svg width="32" height="32" viewBox="0 0 32 32" fill="none" xmlns="http://www.w3.org/2000/svg">
<path d="M10.9274 25.4402C10.2768 25.4402 9.71957 25.2082 9.25568 24.7443C8.79178 24.2804 8.55984 23.7232 8.55984 23.0727V4.36714C8.55984 3.71683 8.79178 3.15973 9.25568 2.69584C9.71957 2.23195 10.2768 2 10.9274 2H25.0919C25.7425 2 26.2997 2.23195 26.7636 2.69584C27.2275 3.15973 27.4595 3.71683 27.4595 4.36714V23.0727C27.4595 23.7232 27.2275 24.2804 26.7636 24.7443C26.2997 25.2082 25.7425 25.4402 25.0919 25.4402H10.9274ZM10.9274 23.5384H25.0919C25.2085 23.5384 25.3153 23.4899 25.4124 23.3928C25.5093 23.2959 25.5577 23.1892 25.5577 23.0727V4.36714C25.5577 4.25085 25.5093 4.14414 25.4124 4.04703C25.3153 3.95016 25.2085 3.90173 25.0919 3.90173H10.9274C10.8108 3.90173 10.704 3.95016 10.6069 4.04703C10.51 4.14414 10.4616 4.25085 10.4616 4.36714V23.0727C10.4616 23.1892 10.51 23.2959 10.6069 23.3928C10.704 23.4899 10.8108 23.5384 10.9274 23.5384ZM6.36751 30C5.71696 30 5.15973 29.7681 4.69584 29.3042C4.23195 28.8403 4 28.283 4 27.6325V7.97649C4 7.70658 4.09144 7.48068 4.27432 7.29881C4.45721 7.11668 4.68423 7.02562 4.95541 7.02562C5.22658 7.02562 5.45209 7.11668 5.63195 7.29881C5.8118 7.48068 5.90173 7.70658 5.90173 7.97649V27.6325C5.90173 27.749 5.95016 27.8559 6.04703 27.953C6.14414 28.0498 6.25097 28.0983 6.36751 28.0983H21.483C21.7529 28.0983 21.9788 28.1897 22.1606 28.3726C22.3428 28.5555 22.4338 28.7825 22.4338 29.0537C22.4338 29.3248 22.3428 29.5504 22.1606 29.7302C21.9788 29.9101 21.7529 30 21.483 30H6.36751Z" fill="#131212"/>
</svg>

<svg xmlns="http://www.w3.org/2000/svg" viewBox="0 0 32 32">
  <path fill="currentColor" d="M10.927 25.44a2.28 2.28 0 0 1-1.671-.696 2.28 2.28 0 0 1-.696-1.671V4.367c0-.65.232-1.207.696-1.671A2.28 2.28 0 0 1 10.927 2h14.165c.65 0 1.208.232 1.672.696a2.28 2.28 0 0 1 .695 1.671v18.706a2.28 2.28 0 0 1-.695 1.671 2.28 2.28 0 0 1-1.672.696H10.927Zm0-1.902h14.165a.445.445 0 0 0 .32-.145.445.445 0 0 0 .146-.32V4.367a.445.445 0 0 0-.146-.32.446.446 0 0 0-.32-.145H10.927a.446.446 0 0 0-.32.145.445.445 0 0 0-.145.32v18.706c0 .116.048.223.145.32a.445.445 0 0 0 .32.145ZM6.367 30a2.28 2.28 0 0 1-1.671-.696A2.28 2.28 0 0 1 4 27.633V7.976c0-.27.091-.495.274-.677a.927.927 0 0 1 .681-.273.925.925 0 0 1 .946.95v19.657c0 .116.05.223.146.32a.446.446 0 0 0 .32.145h15.116c.27 0 .496.092.678.275.182.182.273.41.273.68a.925.925 0 0 1-.95.946H6.367Z"/>
</svg>
